!!!COM: Music21
!!!OTL: slide_Dancing-Dog--The
!!!OMV: slide_Dancing-Dog--The
**kern
*clefG2
*k[f#c#]
*M12/8
=1
4a
8b
8cc#L
8b
8aJ
=
8eeL
8a
8bJ
8cc#L
8b
8aJ
2.ryy
=
8ddL
8ee
8ddJ
8cc#L
8b
8aJ
2.ryy
=
8gL
8a
8bJ
4a
8e
2.ryy
=
4a
8b
8cc#L
8b
8aJ
2.ryy
!!linebreak:original
=
8eeL
8a
8bJ
8cc#L
8b
8aJ
2.ryy
=
8ff#L
8aa
8ff#J
8ggL
8ee
8ddJ
2.ryy
=
8gL
8a
8bJ
4.a
2.ryy
=||
*M12/8
4a
8b
8cc#L
8b
8aJ
=
8eeL
8a
8bJ
8cc#L
8b
8aJ
2.ryy
!!linebreak:original
=
8ddL
8ee
8ddJ
8cc#L
8b
8aJ
2.ryy
=
8gL
8a
8bJ
4a
8e
2.ryy
=
4a
8b
8cc#L
8b
8aJ
2.ryy
=
8eeL
8a
8bJ
8cc#L
8b
8aJ
2.ryy
=
8ff#L
8aa
8ff#J
8ggL
8ee
8ddJ
2.ryy
!!linebreak:original
=
8gL
8a
8bJ
4.a
2.ryy
=||
4ee
8cc#
8cc#L
8dd
8eeJ
2.ryy
=
8bL
8cc#
8ddJ
8cc#L
8b
8aJ
2.ryy
=
4ee
8cc#
8cc#L
8dd
8eeJ
2.ryy
=
8bL
8cc#
8ddJ
4ee
8ff#
2.ryy
=
8ggL
8ff#
8eeJ
8ff#L
8ee
8ddJ
2.ryy
!!linebreak:original
=
8eeL
8ff#
8eeJ
8ddL
8cc#
8bJ
2.ryy
=
4a
8b
8cc#L
8b
8aJ
2.ryy
=
8gL
8a
8bJ
4.a
2.ryy
=||
4ee
8cc#
8cc#L
8dd
8eeJ
2.ryy
=
8bL
8cc#
8ddJ
8cc#L
8b
8aJ
2.ryy
=
4ee
8cc#
8cc#L
8dd
8eeJ
2.ryy
!!linebreak:original
=
8bL
8cc#
8ddJ
4ee
8ff#
2.ryy
=
8ggL
8ff#
8eeJ
8ff#L
8ee
8ddJ
2.ryy
=
8eeL
8ff#
8eeJ
8ddL
8cc#
8bJ
2.ryy
=
4a
8b
8cc#L
8b
8aJ
2.ryy
=
8gL
8a
8bJ
4.a
2.ryy
=||
*-
